X:1
T:Finsk polska
R:Polska
O:Finland
Z:ABC-transkribering av Sven Midgren, fritt ur minnet
M:3/4
L:1/16
K:G
|: D3G G2Ac B2AG | F2D2 DFAF DFAF | E3E G2F2 E2D2 | EDEF D2E2 F2D2 |
D3G G2Ac B2AG | F2D2 DFAF DFAF | E3E G2F2 E2D2 | EDEF D8 :|
|: d2d2 dBGB dBGB | c2c2 cAFA cAFA | c2ed cdcB ABAG | F2G2 A2cA GFED |
 D2d2 dBGB dBGB | c2c2 cAFA cAFA | c2ed cdcB A2G2 | F2DF A2GF G4 :|

